X:1
T:D dansar en ging
C:Trad
R:Vals
Z:Patrik Mnsson, 4/7 2008
O:Skne
B:Omtyckta Sknska allspelsltar
M:3/4
L:1/8
Q:1/4=168
K:Dm
DE|: "Dm" F2 F2 DE | F2 F2 DE | F2 F2 D2| "A" E4 DE | "Dm" F2 F2 D2 | 
     "F" A2 A2 D2 | "C"G2 G2 F2  | "A" E4 D2 | E2 E2 EF | "Dm" D2 D2 DE :|
